X:1
T:Title
%%score { ( 1 3 ) | ( 2 4 ) }
L:1/8
M:9/8
K:Db
V:1 treble nm="Grand Piano"
V:3 treble 
V:2 treble 
V:4 treble 
V:1
 z3 z3[Q:1/4=100] A=GA | .[Fd]6 z3 | .[A,CA]3 .[A,CG]3 GFG | .[ce]6 z3 | [A,DF]6 A=GA | .[Af]6 z3 | %6
 e3 .B3 dcB | .[FA]6 z3 |[M:3/4] [Fd]6 |[M:3/8] A=GA |[M:9/8] e6 z3 | d6 z3 | %12
 [Fd]3 [Fd]2 [FB] cdc | [DB]6 cBc | d6 z3 | [Af]6 z3 | .[FA]6 z3[K:bass] |[M:3/4] [F,D]6 |] %18
V:2
 z3 z3 F_F=F | [D,A,]D,D, D,[D,A,][D,A,] D,D,D, | z2 =G .A,,3 E=DE | z3 z3 .[A,,A,]3 | %4
 D,6[K:treble] F_F=F | [D,D]D,D, D,[D,A,][D,A,] [D,A,][E,A,][F,_C] | [G,B,G]3 .[G,DG]3 BAG | %7
 A,A,A, A,[A,D_F][A,D=F] [A,,A,]2 [A,,A,] |[M:3/4] [D,A,]6 |[M:3/8] z3 | %10
[M:9/8][K:treble] [A,CG][A,C][A,C] .[A,C]3 z3 | [D,A,][D,A,][D,B,] .[D,A,]3 F,F,F, | %12
 [B,,B,]3 [B,,B,]2 [D,B,] [F,=A,E][F,A,F][F,A,E] | [B,,B,]6[K:treble] [A,EG][A,DG][A,EG] | %14
 [D,D]2 [D,A,] [D,A,]2 [F,D][K:treble] [A,CA][A,B,A][A,CA] | [D,D]2 D, .D,3 [G,D][G,D][G,D] | %16
 [A,D]2 A, A,[K:treble][A,DF][A,D][K:bass] z GA,, |[M:3/4] D,6 |] %18
V:3
 x9 | z A,A, A,[Ac][GB] [A,FA][A,EG][A,DF] | x9 | z A,A, A,[Bd][Ac] [GB]A[A,EG] | x9 | %5
 z DD D[Ge][Fd] [Fd][Gc][Ad] | x9 | DDD D=GA [_GB]2 [Gc] |[M:3/4] x6 |[M:3/8] x3 | %10
[M:9/8] z GG .G3 A=GA | FFG .F3 FFF | x9 | x9 | F2 F F2 A ede | z2 D .D3 [Be][Bd][GB] | %16
 z2 D DdF .[CA]2[K:bass] [G,CE] |[M:3/4] x6 |] %18
V:4
 x9 | x9 | A,,3 z3 z3 | [A,,A,]A,,A,, A,,[A,,A,][A,,A,] z FA,, | x6[K:treble] x3 | x9 | x9 | x9 | %8
[M:3/4] x6 |[M:3/8] x3 |[M:9/8][K:treble] x9 | x9 | x9 | x6[K:treble] x3 | x6[K:treble] x3 | x9 | %16
 z3 z3[K:treble][K:bass] .[A,,E,]3 |[M:3/4] x6 |] %18

